icons/svgs/location-crosshairs-solid.svg

<svg width="24" height="24" viewBox="0 0 24 24" fill="none" xmlns="http://www.w3.org/2000/svg">
<path d="M12 2C12.6641 2 13.25 2.58594 13.25 3.25V4.61719C16.375 5.16406 18.8359 7.625 19.3828 10.75H20.75C21.4141 10.75 22 11.3359 22 12C22 12.7031 21.4141 13.25 20.75 13.25H19.3828C18.8359 16.4141 16.375 18.875 13.25 19.4219V20.75C13.25 21.4531 12.6641 22 12 22C11.2969 22 10.75 21.4531 10.75 20.75V19.4219C7.58594 18.875 5.125 16.4141 4.57812 13.25H3.25C2.54688 13.25 2 12.7031 2 12C2 11.3359 2.54688 10.75 3.25 10.75H4.57812C5.125 7.625 7.58594 5.16406 10.75 4.61719V3.25C10.75 2.58594 11.2969 2 12 2ZM7 12C7 13.7969 7.9375 15.4375 9.5 16.3359C11.0234 17.2344 12.9375 17.2344 14.5 16.3359C16.0234 15.4375 17 13.7969 17 12C17 10.2422 16.0234 8.60156 14.5 7.70312C12.9375 6.80469 11.0234 6.80469 9.5 7.70312C7.9375 8.60156 7 10.2422 7 12ZM12 8.875C13.0938 8.875 14.1094 9.5 14.6953 10.4375C15.2422 11.4141 15.2422 12.625 14.6953 13.5625C14.1094 14.5391 13.0938 15.125 12 15.125C10.8672 15.125 9.85156 14.5391 9.26562 13.5625C8.71875 12.625 8.71875 11.4141 9.26562 10.4375C9.85156 9.5 10.8672 8.875 12 8.875Z" fill="black"/>
</svg>

<svg xmlns="http://www.w3.org/2000/svg" width="24" height="24" fill="currentColor" class="icon-location-crosshairs-solid" viewBox="0 0 24 24">
  <mask id="a" width="20" height="20" x="2" y="2" maskUnits="userSpaceOnUse" style="mask-type:alpha">
    <path d="M12 2c.664 0 1.25.586 1.25 1.25v1.367a7.56 7.56 0 0 1 6.133 6.133h1.367c.664 0 1.25.586 1.25 1.25 0 .703-.586 1.25-1.25 1.25h-1.367a7.56 7.56 0 0 1-6.133 6.172v1.328c0 .703-.586 1.25-1.25 1.25-.703 0-1.25-.547-1.25-1.25v-1.328a7.555 7.555 0 0 1-6.172-6.172H3.25C2.547 13.25 2 12.703 2 12c0-.664.547-1.25 1.25-1.25h1.328a7.56 7.56 0 0 1 6.172-6.133V3.25c0-.664.547-1.25 1.25-1.25M7 12a4.97 4.97 0 0 0 2.5 4.336c1.523.898 3.438.898 5 0 1.523-.898 2.5-2.54 2.5-4.336 0-1.758-.977-3.398-2.5-4.297-1.562-.898-3.477-.898-5 0A4.96 4.96 0 0 0 7 12m5-3.125c1.094 0 2.11.625 2.695 1.563.547.976.547 2.187 0 3.124-.586.977-1.601 1.563-2.695 1.563a3.16 3.16 0 0 1-2.734-1.562c-.547-.938-.547-2.149 0-3.126C9.852 9.5 10.867 8.876 12 8.876"/>
  </mask>
  <g mask="url(#a)">
    <path d="M0 0h24v24H0z"/>
  </g>
</svg>
